public/icons/star.svg

<svg xmlns="http://www.w3.org/2000/svg" width="26" height="27" fill="none"><path fill="#F1B31C" d="m6.3105 24.3333 1.76041-7.6104-5.90416-5.1187 7.8-.6771L13.0001 3.75l3.0333 7.1771 7.8.6771-5.9042 5.1187 1.7605 7.6104-6.6896-4.0354-6.6896 4.0354Z"/></svg>

<svg
    width='26'
    height='27'
    viewBox='0 0 26 27'
    fill='none'
    xmlns='http://www.w3.org/2000/svg'
>
    <path
    d='M6.3105 24.3333L8.07091 16.7229L2.16675 11.6042L9.96675 10.9271L13.0001 3.75L16.0334 10.9271L23.8334 11.6042L17.9292 16.7229L19.6897 24.3333L13.0001 20.2979L6.3105 24.3333Z'
    fill='#F1B31C'
    />
</svg>
